X:174
%%etbk:tnset id:56,pos:5,rep:3x,ant:
%%etbk:tnset id:264,pos:3,rep:4x,ant:
%%etbk:wsite http://www.thesession.org/tunes/display/68
%%etbk:pldat 2016-06-23T19:13,2016-06-22T15:24,2016-06-20T18:09,2016-06-18T15:44,2016-05-05T14:13,2016-05-04T16:25,2016-05-03T16:02,2016-03-11T16:15,2016-03-09T17:41,2016-03-08T15:34,2016-03-05T14:06,2016-02-16T17:28,2015-11-04T16:28,2015-10-29T18:39,2015-10-27T17:05,2015-10-25T14:17,2015-10-21T16:43,2015-10-14T17:51,2015-10-06T15:21,2015-09-09T17:28,2015-06-26T17:26,2015-06-23T18:11,2015-06-22T18:01,2015-05-28T18:59,2015-04-22T16:45,2015-03-12T18:32,2015-03-09T19:04,2015-03-04T17:57,2015-02-17T18:13,2015-02-14T12:48,2015-01-29T18:16,2014-11-05T19:06,2014-11-04T16:53,2014-11-02T14:03,2014-10-28T17:07,2014-10-19T15:11,2014-08-21T18:41,2014-08-20T18:15,2014-08-18T18:10,2014-06-25T15:34,2014-06-24T18:47,2014-06-11T16:29,2014-06-05T18:07,2014-03-05T19:21,2014-03-02T16:46,2014-02-24T18:03,2014-02-18T17:16,2013-10-30T16:08,2013-10-28T18:59,2013-10-23T18:11,2013-10-17T19:10,2013-10-13T16:05,2013-10-09T15:30,2013-10-04T15:58,2013-09-12T17:53,2013-09-11T19:13,2013-08-29T16:14
T: Mountain Road, The
Z: Piano Box Version by Martin Fleischmann
H: Created 2013-02-19 /  Last Modified 2013-02-19
M: 4/4
L: 1/8
R: reel
K: Dmaj
"D"!3!F2!4!A!3!F !5!B!3!F!4!A!3!F | !3!F2!4!AF "A"!2!EFDE | "D"!3!F2!4!AF !5!BF!4!A!3!F | "A"!4!GGFG !2!EFDE |
"D"!3!F2!4!AF !5!BF!4!AF | !3!F2!4!AF "A"!2!EFDE | "D"!3!F!4!A-A!1!A {d}!2!BAAB | "A"!1!AB!3!d!4!e !3!f2fe |
|: "D"!1!d2!4!d!2!B !1!A2!2!F!1!A | !4!d2!1!de !3!fgfe | !1!d2!4!dB !1!A2!3!F!5!A | "A"!4!GE!3!FD !2!E!1!D!2!B,!1!D :|


